shared/images/iconfont/kb-iconfont-tweet-16.svg

<?xml version="1.0" encoding="UTF-8"?>
<svg width="16px" height="16px" viewBox="0 0 16 16" version="1.1" xmlns="http://www.w3.org/2000/svg" xmlns:xlink="http://www.w3.org/1999/xlink">
    <!-- Generator: sketchtool 49.2 (51160) - http://www.bohemiancoding.com/sketch -->
    <title>85BD2CFA-61D8-4616-8249-2B2D2837A92E</title>
    <desc>Created with sketchtool.</desc>
    <defs></defs>
    <g id="Colors,-icons" stroke="none" stroke-width="1" fill="none" fill-rule="evenodd">
        <g id="Icons-2" transform="translate(-491.000000, -277.000000)">
            <g id="kb-iconfont-tweet-16" transform="translate(491.000000, 277.000000)">
                <rect id="icon-area" fill="#D8D8D8" opacity="0" x="0" y="0" width="16" height="16"></rect>
                <path d="M6.0222616,1.99083621 C6.02226162,2.54271609 5.70915125,3.01402957 5.22141216,3.01402957 L1.99595557,3.01402957 C1.99595557,3.4014194 1.99609116,2.96280518 1.99595557,3.20944925 C1.99432845,4.92673738 1.99826067,6.27275462 1.99595559,7.99004275 C1.99527762,8.45594106 1.76963723,8.98717267 1.04594336,8.9871741 C0.411787994,8.98717535 0.0242596299,8.41783936 0.0176155621,7.99004275 C-0.0143844379,5.93553428 0.00446301903,4.3903306 0.0176155614,2.33595772 C0.0227681038,1.53297467 0.622632511,1.01988993 1.42561556,1.01161874 C2.6908359,0.998601789 3.95632743,0.993449247 5.22141217,1.01256789 C5.41232743,1.01541535 6.02226158,1.3442908 6.0222616,1.99083621 Z M7,14.9963294 C6.99999998,14.4444495 7.31311035,13.973136 7.80084944,13.973136 C8.28858852,13.973136 11.7103738,13.973136 13.026306,13.973136 C13.026306,13.5857462 13.0261704,14.0243604 13.026306,13.7777163 C13.0279331,12.0604282 13.0240009,12.714411 13.026306,10.9971228 C13.026984,10.5312245 13.2526244,9.99999291 13.9763182,9.99999148 C14.6104736,9.99999023 14.998002,10.5693262 15.004646,10.9971228 C15.036646,13.0516313 15.0177986,12.596835 15.004646,14.6512079 C14.9994935,15.4541909 14.3996291,15.9672757 13.596646,15.9755468 C12.3314257,15.9885638 9.06607716,15.9717845 7.80084943,15.9745977 C7.37397621,15.9755468 7.00000002,15.6428748 7,14.9963294 Z" id="Combined-Shape" fill="#000000"></path>
                <path d="M15.4999512,1.42107944e-14 C9.15169507,0.00721641271 4.00721641,5.15169507 4,11.4999512 C4,11.7760924 4.22385668,11.9999491 4.49999788,11.9999491 C4.77613908,11.9999491 4.99999576,11.7760924 4.99999576,11.4999512 C5.00148434,11.193543 5.0184944,10.887407 5.05096054,10.5827201 C5.07299545,10.360796 5.09838534,10.139722 5.1315852,9.9209779 L5.14822013,9.87935308 C5.43497394,8.33612649 6.11129962,6.8917665 7.11302179,5.68332588 C7.22614946,5.54507719 7.40443853,5.47768302 7.58072925,5.50653011 C7.75701996,5.5353772 7.90452956,5.65608299 7.96769261,5.82317877 C8.03085565,5.99027455 8.00007617,6.1783745 7.88694851,6.31662319 C7.11821244,7.24645636 6.5616381,8.33283922 6.25606543,9.49995969 L7.99998303,9.49995969 C9.75394677,9.52711045 11.4598546,8.92644703 12.8098676,7.80636187 L12.4999039,5.99997454 L14.1960617,6.2909733 C15.3767901,4.59121271 16.0065212,2.56960227 15.9999491,0.499997878 L16,0 L15.4999512,1.42107944e-14 Z" id="feather-pen" fill="#000000" fill-rule="nonzero"></path>
            </g>
        </g>
    </g>
</svg>

<svg xmlns="http://www.w3.org/2000/svg" width="16" height="16" viewBox="0 0 16 16">
    <g fill="#000" fill-rule="evenodd">
        <path d="M6.022 1.99c0 .553-.313 1.024-.8 1.024H1.995v.195c-.002 1.718.002 3.064 0 4.781 0 .466-.226.997-.95.997-.634 0-1.022-.57-1.028-.997-.032-2.054-.014-3.6 0-5.654.005-.803.605-1.316 1.408-1.324 1.265-.013 2.53-.019 3.795 0 .191.003.801.332.801.979zM7 14.997c0-.552.313-1.023.8-1.023h5.226v-.195c.002-1.718-.002-1.064 0-2.78.001-.467.227-.998.95-.998.634 0 1.022.57 1.029.997.032 2.055.013 1.6 0 3.654-.006.803-.605 1.316-1.408 1.325-1.266.013-4.53-.004-5.796-.001-.427 0-.801-.332-.801-.979z"/>
        <path fill-rule="nonzero" d="M15.5 0C9.152.007 4.007 5.152 4 11.5a.5.5 0 0 0 1 0c.001-.306.018-.613.051-.917.022-.222.047-.443.08-.662l.017-.042a9.212 9.212 0 0 1 1.965-4.196.5.5 0 0 1 .774.634A8.292 8.292 0 0 0 6.257 9.5H8a7.355 7.355 0 0 0 4.81-1.694L12.5 6l1.696.291C15.376 4.591 16.006 2.57 16 .5V0h-.5z"/>
    </g>
</svg>
